optimized/24/outline/association.svg

<svg viewBox="0 0 24 24" fill="none" xmlns="http://www.w3.org/2000/svg">
  <path d="M4 4.5H16C16.2761 4.5 16.5 4.72386 16.5 5V7.25C16.5 7.66421 16.8358 8 17.25 8C17.6642 8 18 7.66421 18 7.25V5C18 3.89543 17.1046 3 16 3H4C2.89543 3 2 3.89543 2 5V19C2 20.1046 2.89543 21 4 21H7.25C7.66421 21 8 20.6642 8 20.25C8 19.8358 7.66421 19.5 7.25 19.5H4C3.72386 19.5 3.5 19.2761 3.5 19V5C3.5 4.72386 3.72386 4.5 4 4.5Z" fill="#333333"/>
  <path d="M14 10.75C14 10.3358 14.3358 10 14.75 10H21.25C21.6642 10 22 10.3358 22 10.75C22 11.1642 21.6642 11.5 21.25 11.5H14.75C14.3358 11.5 14 11.1642 14 10.75Z" fill="#333333"/>
  <path d="M11.25 9.5C10.5596 9.5 10 10.0596 10 10.75C10 11.4404 10.5596 12 11.25 12C11.9404 12 12.5 11.4404 12.5 10.75C12.5 10.0596 11.9404 9.5 11.25 9.5Z" fill="#333333"/>
  <path d="M14 14.75C14 14.3358 14.3358 14 14.75 14H21.25C21.6642 14 22 14.3358 22 14.75C22 15.1642 21.6642 15.5 21.25 15.5H14.75C14.3358 15.5 14 15.1642 14 14.75Z" fill="#333333"/>
  <path d="M11.25 13.5C10.5596 13.5 10 14.0596 10 14.75C10 15.4404 10.5596 16 11.25 16C11.9404 16 12.5 15.4404 12.5 14.75C12.5 14.0596 11.9404 13.5 11.25 13.5Z" fill="#333333"/>
  <path d="M14 18.75C14 18.3358 14.3358 18 14.75 18H21.25C21.6642 18 22 18.3358 22 18.75C22 19.1642 21.6642 19.5 21.25 19.5H14.75C14.3358 19.5 14 19.1642 14 18.75Z" fill="#333333"/>
  <path d="M11.25 17.5C10.5596 17.5 10 18.0596 10 18.75C10 19.4404 10.5596 20 11.25 20C11.9404 20 12.5 19.4404 12.5 18.75C12.5 18.0596 11.9404 17.5 11.25 17.5Z" fill="#333333"/>
</svg>

<svg xmlns="http://www.w3.org/2000/svg" width="24" height="24" fill="none">
  <path fill="#333" d="M4 4.5h12a.5.5 0 0 1 .5.5v2.25a.75.75 0 0 0 1.5 0V5a2 2 0 0 0-2-2H4a2 2 0 0 0-2 2v14a2 2 0 0 0 2 2h3.25a.75.75 0 0 0 0-1.5H4a.5.5 0 0 1-.5-.5V5a.5.5 0 0 1 .5-.5Z"/>
  <path fill="#333" d="M14 10.75a.75.75 0 0 1 .75-.75h6.5a.75.75 0 0 1 0 1.5h-6.5a.75.75 0 0 1-.75-.75ZM11.25 9.5a1.25 1.25 0 1 0 0 2.5 1.25 1.25 0 0 0 0-2.5ZM14 14.75a.75.75 0 0 1 .75-.75h6.5a.75.75 0 0 1 0 1.5h-6.5a.75.75 0 0 1-.75-.75ZM11.25 13.5a1.25 1.25 0 1 0 0 2.5 1.25 1.25 0 0 0 0-2.5ZM14 18.75a.75.75 0 0 1 .75-.75h6.5a.75.75 0 0 1 0 1.5h-6.5a.75.75 0 0 1-.75-.75ZM11.25 17.5a1.25 1.25 0 1 0 0 2.5 1.25 1.25 0 0 0 0-2.5Z"/>
</svg>
